assets/icons/qvision/margin.svg

<svg xmlns="http://www.w3.org/2000/svg" height="24" viewBox="0 0 24 24" width="24"><path d="M0 0h24v24H0z" fill="none"/><path d="M3 3v18h18V3H3zm16 16H5V5h14v14zM11 7h2v2h-2zM7 7h2v2H7zm8 0h2v2h-2zm-8 4h2v2H7zm4 0h2v2h-2zm4 0h2v2h-2z"/></svg>

<svg width="24" height="24" viewBox="0 0 24 24" fill="none" xmlns="http://www.w3.org/2000/svg">
<g clip-path="url(#clip0_147_2696)">
<path d="M3 3V21H21V3H3ZM19 19H5V5H19V19ZM11 7H13V9H11V7ZM7 7H9V9H7V7ZM15 7H17V9H15V7ZM7 11H9V13H7V11ZM11 11H13V13H11V11ZM15 11H17V13H15V11Z" fill="#323232"/>
</g>
<defs>
<clipPath id="clip0_147_2696">
<rect width="24" height="24" fill="white"/>
</clipPath>
</defs>
</svg>
